events/images/workshop.svg

<?xml version="1.0" encoding="UTF-8" standalone="no"?>
<svg
   width="492"
   height="492"
   overflow="hidden"
   version="1.1"
   id="svg15"
   sodipodi:docname="workshop.svg"
   inkscape:version="1.4.3 (0d15f75, 2025-12-25)"
   xmlns:inkscape="http://www.inkscape.org/namespaces/inkscape"
   xmlns:sodipodi="http://sodipodi.sourceforge.net/DTD/sodipodi-0.dtd"
   xmlns="http://www.w3.org/2000/svg"
   xmlns:svg="http://www.w3.org/2000/svg">
  <defs
     id="defs15" />
  <sodipodi:namedview
     id="namedview15"
     pagecolor="#ffffff"
     bordercolor="#000000"
     borderopacity="0.25"
     inkscape:showpageshadow="2"
     inkscape:pageopacity="0.0"
     inkscape:pagecheckerboard="0"
     inkscape:deskcolor="#d1d1d1"
     inkscape:zoom="0.6875"
     inkscape:cx="245.81818"
     inkscape:cy="246.54545"
     inkscape:window-width="1024"
     inkscape:window-height="1186"
     inkscape:window-x="0"
     inkscape:window-y="25"
     inkscape:window-maximized="0"
     inkscape:current-layer="svg15" />
  <g
     id="g15"
     transform="translate(-394,-114)">
    <path
       d="M 394,270.043 C 394,183.863 463.863,114 550.043,114 H 729.957 C 816.137,114 886,183.863 886,270.043 V 449.957 C 886,536.137 816.137,606 729.957,606 H 550.043 C 463.863,606 394,536.137 394,449.957 Z"
       fill="#fceebd"
       fill-rule="evenodd"
       id="path1" />
    <g
       id="g12">
      <g
         id="g11">
        <g
           id="g10">
          <path
             d="m 630.042,443.917 c 0,10.447 -8.47,18.916 -18.917,18.916 -10.447,0 -18.917,-8.469 -18.917,-18.916 0,-10.448 8.47,-18.917 18.917,-18.917 10.447,0 18.917,8.469 18.917,18.917 z"
             fill="#00883a"
             id="path2" />
          <path
             d="m 648.333,505.833 v -18.916 c -0.061,-2.948 -1.436,-5.714 -3.75,-7.542 -5.436,-4.19 -11.655,-7.25 -18.291,-9 -5.01,-1.538 -10.219,-2.324 -15.459,-2.333 -5.234,0.08 -10.433,0.865 -15.458,2.333 -6.563,1.943 -12.748,4.986 -18.292,9 -2.313,1.828 -3.688,4.594 -3.75,7.542 v 18.916 z"
             fill="#00883a"
             id="path3" />
          <path
             d="m 712.792,443.917 c 0,10.447 -8.47,18.916 -18.917,18.916 -10.447,0 -18.917,-8.469 -18.917,-18.916 0,-10.448 8.47,-18.917 18.917,-18.917 10.447,0 18.917,8.469 18.917,18.917 z"
             fill="#00883a"
             id="path4" />
          <path
             d="m 731.667,505.833 v -18.916 c -0.062,-2.948 -1.437,-5.714 -3.75,-7.542 -5.436,-4.19 -11.656,-7.25 -18.292,-9 -5.009,-1.538 -10.219,-2.324 -15.458,-2.333 -5.235,0.08 -10.434,0.865 -15.459,2.333 -6.562,1.943 -12.748,4.986 -18.291,9 -2.314,1.828 -3.689,4.594 -3.75,7.542 v 18.916 z"
             fill="#00883a"
             id="path5" />
          <path
             d="m 796.125,443.917 c 0,10.447 -8.469,18.916 -18.917,18.916 -10.447,0 -18.916,-8.469 -18.916,-18.916 0,-10.448 8.469,-18.917 18.916,-18.917 10.448,0 18.917,8.469 18.917,18.917 z"
             fill="#00883a"
             id="path6" />
          <path
             d="m 815,505.833 v -18.916 c -0.062,-2.948 -1.437,-5.714 -3.75,-7.542 -5.436,-4.19 -11.655,-7.25 -18.292,-9 -5.009,-1.538 -10.218,-2.324 -15.458,-2.333 -5.234,0.08 -10.434,0.865 -15.458,2.333 -6.563,1.943 -12.748,4.986 -18.292,9 -2.313,1.828 -3.688,4.594 -3.75,7.542 v 18.916 z"
             fill="#00883a"
             id="path7" />
          <path
             d="m 554.25,269 c 0,13.669 -11.081,24.75 -24.75,24.75 -13.669,0 -24.75,-11.081 -24.75,-24.75 0,-13.669 11.081,-24.75 24.75,-24.75 13.669,0 24.75,11.081 24.75,24.75 z"
             fill="#00883a"
             id="path8" />
          <path
             d="m 675.458,259.458 c -2.449,-2.414 -6.383,-2.414 -8.833,0 l -53.833,53.834 c -4.302,-1.214 -8.926,-0.039 -12.125,3.083 -0.875,0.875 -16.417,26.292 -16.417,26.292 l -4.667,-19.875 c -0.618,-2.563 -1.896,-4.919 -3.708,-6.834 -7.68,-6.208 -16.518,-10.825 -26,-13.583 -6.703,-1.434 -13.523,-2.257 -20.375,-2.458 -6.913,0.106 -13.78,1.143 -20.417,3.083 -9.568,2.508 -18.443,7.152 -25.958,13.583 -1.828,1.903 -3.109,4.264 -3.708,6.834 0,0 -17.959,75.416 -17.959,76.666 0,6.904 5.597,12.5 12.5,12.5 5.533,-0.142 10.313,-3.905 11.75,-9.25 l 13,-53.791 V 522.5 h 24.625 V 411.208 h 12.5 V 522.5 h 24.584 V 348.75 L 565,368.333 c 0.318,1.354 1.218,2.498 2.458,3.125 4.792,3.678 10.629,5.735 16.667,5.875 3.932,0.551 7.828,-1.219 10,-4.541 l 25.417,-41.667 c 1.624,-2.562 2.234,-5.638 1.708,-8.625 l 54.167,-54.167 c 2.453,-2.443 2.472,-6.409 0.041,-8.875 z"
             fill="#00883a"
             id="path9" />
          <path
             d="M 760.833,201.667 H 556.667 c -9.205,0 -16.667,7.462 -16.667,16.666 v 15 c 6.371,1.734 12.138,5.195 16.667,10 v -25 h 204.166 v 137.5 H 618.625 L 608.458,372.5 h 152.375 c 9.205,0 16.667,-7.462 16.667,-16.667 v -137.5 c 0,-9.204 -7.462,-16.666 -16.667,-16.666 z"
             fill="#00883a"
             id="path10" />
        </g>
      </g>
    </g>
    <path
       d="M 622,247 H 749.462"
       stroke="#00883a"
       stroke-width="8"
       stroke-linejoin="round"
       stroke-miterlimit="10"
       fill="none"
       fill-rule="evenodd"
       id="path12" />
    <path
       d="m 686,274 h 63.731"
       stroke="#00883a"
       stroke-width="8"
       stroke-linejoin="round"
       stroke-miterlimit="10"
       fill="none"
       fill-rule="evenodd"
       id="path13" />
    <path
       d="m 686,301 h 63.731"
       stroke="#00883a"
       stroke-width="8"
       stroke-linejoin="round"
       stroke-miterlimit="10"
       fill="none"
       fill-rule="evenodd"
       id="path14" />
    <path
       d="m 663,328 h 86.319"
       stroke="#00883a"
       stroke-width="8"
       stroke-linejoin="round"
       stroke-miterlimit="10"
       fill="none"
       fill-rule="evenodd"
       id="path15" />
  </g>
</svg>

<svg width="1280" height="720" xmlns="http://www.w3.org/2000/svg" xmlns:xlink="http://www.w3.org/1999/xlink" overflow="hidden"><g><rect x="0" y="0" width="1280" height="720" fill="#FFFFFF"/><path d="M394 270.043C394 183.863 463.863 114 550.043 114L729.957 114C816.137 114 886 183.863 886 270.043L886 449.957C886 536.137 816.137 606 729.957 606L550.043 606C463.863 606 394 536.137 394 449.957Z" fill="#FCEEBD" fill-rule="evenodd"/><g><g><g><path d="M630.042 443.917C630.042 454.364 621.572 462.833 611.125 462.833 600.678 462.833 592.208 454.364 592.208 443.917 592.208 433.469 600.678 425 611.125 425 621.572 425 630.042 433.469 630.042 443.917Z" fill="#00883A"/><path d="M648.333 505.833 648.333 486.917C648.272 483.969 646.897 481.203 644.583 479.375 639.147 475.185 632.928 472.125 626.292 470.375 621.282 468.837 616.073 468.051 610.833 468.042 605.599 468.122 600.4 468.907 595.375 470.375 588.812 472.318 582.627 475.361 577.083 479.375 574.77 481.203 573.395 483.969 573.333 486.917L573.333 505.833Z" fill="#00883A"/><path d="M712.792 443.917C712.792 454.364 704.322 462.833 693.875 462.833 683.428 462.833 674.958 454.364 674.958 443.917 674.958 433.469 683.428 425 693.875 425 704.322 425 712.792 433.469 712.792 443.917Z" fill="#00883A"/><path d="M731.667 505.833 731.667 486.917C731.605 483.969 730.23 481.203 727.917 479.375 722.481 475.185 716.261 472.125 709.625 470.375 704.616 468.837 699.406 468.051 694.167 468.042 688.932 468.122 683.733 468.907 678.708 470.375 672.146 472.318 665.96 475.361 660.417 479.375 658.103 481.203 656.728 483.969 656.667 486.917L656.667 505.833Z" fill="#00883A"/><path d="M796.125 443.917C796.125 454.364 787.656 462.833 777.208 462.833 766.761 462.833 758.292 454.364 758.292 443.917 758.292 433.469 766.761 425 777.208 425 787.656 425 796.125 433.469 796.125 443.917Z" fill="#00883A"/><path d="M815 505.833 815 486.917C814.938 483.969 813.563 481.203 811.25 479.375 805.814 475.185 799.595 472.125 792.958 470.375 787.949 468.837 782.74 468.051 777.5 468.042 772.266 468.122 767.066 468.907 762.042 470.375 755.479 472.318 749.294 475.361 743.75 479.375 741.437 481.203 740.062 483.969 740 486.917L740 505.833Z" fill="#00883A"/><path d="M554.25 269C554.25 282.669 543.169 293.75 529.5 293.75 515.831 293.75 504.75 282.669 504.75 269 504.75 255.331 515.831 244.25 529.5 244.25 543.169 244.25 554.25 255.331 554.25 269Z" fill="#00883A"/><path d="M675.458 259.458C673.009 257.044 669.075 257.044 666.625 259.458L612.792 313.292C608.49 312.078 603.866 313.253 600.667 316.375 599.792 317.25 584.25 342.667 584.25 342.667L579.583 322.792C578.965 320.229 577.687 317.873 575.875 315.958 568.195 309.75 559.357 305.133 549.875 302.375 543.172 300.941 536.352 300.118 529.5 299.917 522.587 300.023 515.72 301.06 509.083 303 499.515 305.508 490.64 310.152 483.125 316.583 481.297 318.486 480.016 320.847 479.417 323.417 479.417 323.417 461.458 398.833 461.458 400.083 461.458 406.987 467.055 412.583 473.958 412.583 479.491 412.441 484.271 408.678 485.708 403.333L498.708 349.542 498.708 522.5 523.333 522.5 523.333 411.208 535.833 411.208 535.833 522.5 560.417 522.5 560.417 348.75 565 368.333C565.318 369.687 566.218 370.831 567.458 371.458 572.25 375.136 578.087 377.193 584.125 377.333 588.057 377.884 591.953 376.114 594.125 372.792L619.542 331.125C621.166 328.563 621.776 325.487 621.25 322.5L675.417 268.333C677.87 265.89 677.889 261.924 675.458 259.458Z" fill="#00883A"/><path d="M760.833 201.667 556.667 201.667C547.462 201.667 540 209.129 540 218.333L540 233.333C546.371 235.067 552.138 238.528 556.667 243.333L556.667 218.333 760.833 218.333 760.833 355.833 618.625 355.833 608.458 372.5 760.833 372.5C770.038 372.5 777.5 365.038 777.5 355.833L777.5 218.333C777.5 209.129 770.038 201.667 760.833 201.667Z" fill="#00883A"/></g></g></g><path d="M622 247 749.462 247" stroke="#00883A" stroke-width="8" stroke-linejoin="round" stroke-miterlimit="10" fill="none" fill-rule="evenodd"/><path d="M686 274 749.731 274" stroke="#00883A" stroke-width="8" stroke-linejoin="round" stroke-miterlimit="10" fill="none" fill-rule="evenodd"/><path d="M686 301 749.731 301" stroke="#00883A" stroke-width="8" stroke-linejoin="round" stroke-miterlimit="10" fill="none" fill-rule="evenodd"/><path d="M663 328 749.319 328" stroke="#00883A" stroke-width="8" stroke-linejoin="round" stroke-miterlimit="10" fill="none" fill-rule="evenodd"/></g></svg>
